src/lib/packages/icons/src/assets/line/envelope-search.svg

<svg width="24" height="24" viewBox="0 0 24 24" fill="none" xmlns="http://www.w3.org/2000/svg">
<path d="M12.75 19C12.75 19.414 12.414 19.75 12 19.75H5C2.582 19.75 1.25 18.418 1.25 16V7C1.25 4.582 2.582 3.25 5 3.25H17C19.418 3.25 20.75 4.582 20.75 7V11C20.75 11.414 20.414 11.75 20 11.75C19.586 11.75 19.25 11.414 19.25 11V7C19.25 5.423 18.577 4.75 17 4.75H5C3.423 4.75 2.75 5.423 2.75 7V16C2.75 17.577 3.423 18.25 5 18.25H12C12.414 18.25 12.75 18.586 12.75 19ZM16.0591 7.394L11.147 10.966C11.059 11.029 10.942 11.029 10.854 10.966L5.94189 7.394C5.60489 7.149 5.13704 7.22601 4.89404 7.55901C4.65004 7.89401 4.72408 8.36399 5.05908 8.60699L9.97095 12.179C10.2789 12.403 10.64 12.515 11 12.515C11.36 12.515 11.7221 12.403 12.0291 12.179L16.9409 8.60699C17.2759 8.36399 17.35 7.89401 17.106 7.55901C16.863 7.22501 16.3961 7.148 16.0591 7.394ZM22.53 21.53C22.384 21.676 22.192 21.75 22 21.75C21.808 21.75 21.616 21.677 21.47 21.53L19.9199 19.981C19.3429 20.359 18.657 20.583 17.917 20.583C15.895 20.583 14.25 18.938 14.25 16.917C14.25 14.895 15.895 13.25 17.917 13.25C19.938 13.25 21.583 14.895 21.583 16.917C21.583 17.657 21.359 18.344 20.98 18.92L22.53 20.469C22.823 20.763 22.823 21.237 22.53 21.53ZM17.917 19.083C19.111 19.083 20.083 18.111 20.083 16.917C20.083 15.722 19.111 14.75 17.917 14.75C16.722 14.75 15.75 15.722 15.75 16.917C15.75 18.111 16.722 19.083 17.917 19.083Z" fill="currentColor"/>
</svg>

<svg xmlns="http://www.w3.org/2000/svg" width="24" height="24" fill="none"><path fill="currentColor" d="M12.75 19a.75.75 0 0 1-.75.75H5c-2.418 0-3.75-1.332-3.75-3.75V7c0-2.418 1.332-3.75 3.75-3.75h12c2.418 0 3.75 1.332 3.75 3.75v4a.75.75 0 0 1-1.5 0V7c0-1.577-.673-2.25-2.25-2.25H5c-1.577 0-2.25.673-2.25 2.25v9c0 1.577.673 2.25 2.25 2.25h7a.75.75 0 0 1 .75.75Zm3.31-11.606-4.913 3.572a.25.25 0 0 1-.293 0L5.942 7.394a.75.75 0 0 0-.883 1.213l4.912 3.572a1.748 1.748 0 0 0 2.058 0l4.912-3.572a.75.75 0 0 0-.882-1.213Zm6.47 14.136a.748.748 0 0 1-1.06 0l-1.55-1.549a3.641 3.641 0 0 1-2.003.602 3.67 3.67 0 0 1-3.667-3.666 3.671 3.671 0 0 1 3.667-3.667 3.67 3.67 0 0 1 3.666 3.667c0 .74-.224 1.427-.603 2.003l1.55 1.549a.75.75 0 0 1 0 1.061Zm-4.613-2.447a2.169 2.169 0 0 0 2.166-2.166 2.17 2.17 0 0 0-2.166-2.167 2.17 2.17 0 0 0-2.167 2.167 2.17 2.17 0 0 0 2.167 2.166Z"/></svg>
